exports/mortality-from-alcohol-and-drug-use-disorders_v2_850x600.svg

<svg xmlns="http://www.w3.org/2000/svg" version="1.1" style="background-color:#fff;-webkit-font-smoothing:antialiased" width="850" height="600" font-family="'Helvetica Neue',Helvetica,Arial,sans-serif" font-size="18" text-rendering="optimizeLegibility"><g class="ChartTab"><g class="HeaderView"><g opacity=".8" transform="matrix(.27 0 0 .27 778 15)"><a xmlns:xlink="http://www.w3.org/1999/xlink" xlink:href="https://ourworldindata.org" target="_blank"><g><path fill="#1B2543" d="M0 0h211.2v130.1H0z"/><path fill="#E63912" d="M0 112.2h211.2v17.9H0z"/><g><path fill="none" d="M1.2 12.3h210.2v99.2H1.2z"/><path fill="#FFF" d="M37.8 32.2c0 12.7-7.7 19.4-17.1 19.4-9.7 0-16.6-7.5-16.6-18.7 0-11.7 7.3-19.3 17.1-19.3 10.1.1 16.6 7.7 16.6 18.6zm-28.6.6c0 7.9 4.3 14.9 11.8 14.9 7.5 0 11.8-6.9 11.8-15.3 0-7.3-3.8-14.9-11.8-14.9-7.9 0-11.8 7.3-11.8 15.3zM62.7 43.8c0 2.7.1 5.1.2 7.2h-4.3l-.3-4.3h-.1c-1.3 2.1-4 4.9-8.8 4.9-4.2 0-9.1-2.3-9.1-11.6V24.6h4.8v14.6c0 5 1.5 8.4 5.9 8.4 3.2 0 5.5-2.2 6.3-4.4.3-.7.4-1.6.4-2.5V24.6h4.8v19.2zM67.3 32.8c0-3.1-.1-5.8-.2-8.2h4.2l.2 5.2h.2c1.2-3.5 4.1-5.8 7.3-5.8.5 0 .9.1 1.4.2v4.5c-.5-.1-1-.2-1.6-.2-3.4 0-5.8 2.6-6.5 6.2-.1.7-.2 1.4-.2 2.2V51h-4.8V32.8zM95.4 51L86 14.2h5l4.4 18.6c1.1 4.6 2.1 9.2 2.7 12.7h.1c.6-3.7 1.8-8 3-12.8l4.9-18.5h5l4.5 18.7c1 4.4 2 8.7 2.6 12.6h.1c.8-4 1.8-8.1 3-12.7l4.9-18.5h4.9L120.6 51h-5L111 31.9c-1.1-4.7-1.9-8.3-2.4-12h-.1c-.7 3.7-1.5 7.3-2.8 12L100.4 51h-5zM154.9 37.6c0 9.8-6.8 14-13.2 14-7.2 0-12.7-5.2-12.7-13.6 0-8.8 5.8-14 13.1-14 7.7 0 12.8 5.5 12.8 13.6zm-21 .3c0 5.8 3.3 10.1 8 10.1 4.6 0 8-4.3 8-10.3 0-4.5-2.2-10.1-7.9-10.1s-8.1 5.2-8.1 10.3zM158.2 32.8c0-3.1-.1-5.8-.2-8.2h4.2l.2 5.2h.2c1.2-3.5 4.1-5.8 7.3-5.8.5 0 .9.1 1.4.2v4.5c-.5-.1-1-.2-1.6-.2-3.4 0-5.8 2.6-6.5 6.2-.1.7-.2 1.4-.2 2.2V51h-4.8V32.8zM173.5 12.3h4.8V51h-4.8V12.3zM206.5 12.3v31.9c0 2.3.1 5 .2 6.8h-4.3l-.2-4.6h-.2c-1.5 2.9-4.7 5.2-9 5.2-6.4 0-11.3-5.4-11.3-13.4-.1-8.8 5.4-14.2 11.9-14.2 4 0 6.8 1.9 8 4h.1V12.3h4.8zm-4.8 23.1c0-.6-.1-1.4-.2-2a7 7 0 00-6.9-5.6c-5 0-7.9 4.4-7.9 10.2 0 5.3 2.6 9.8 7.8 9.8 3.2 0 6.2-2.1 7.1-5.7.2-.7.2-1.3.2-2.1v-4.6zM42.8 64c.1 1.6-1.1 2.9-3.1 2.9-1.7 0-2.9-1.3-2.9-2.9 0-1.7 1.3-3 3-3 1.9 0 3 1.3 3 3zm-5.4 33.8V71.4h4.8v26.4h-4.8zM47.5 78.6c0-2.7-.1-5-.2-7.1h4.3l.3 4.4h.1c1.3-2.5 4.4-5 8.8-5 3.7 0 9.4 2.2 9.4 11.2v15.8h-4.8V82.6c0-4.3-1.6-7.8-6.1-7.8-3.2 0-5.6 2.2-6.5 4.9-.2.6-.3 1.4-.3 2.2v15.9h-4.8V78.6zM84 61.6c2.9-.4 6.3-.8 10.1-.8 6.8 0 11.7 1.6 14.9 4.6 3.3 3 5.2 7.3 5.2 13.2 0 6-1.9 10.9-5.3 14.3-3.4 3.4-9.1 5.3-16.3 5.3-3.4 0-6.2-.2-8.6-.4V61.6zm4.8 32.5c1.2.2 3 .3 4.8.3 10.2 0 15.7-5.7 15.7-15.6.1-8.7-4.9-14.2-14.9-14.2-2.5 0-4.3.2-5.6.5v29zM132.1 97.8l-.4-3.3h-.2a9.79 9.79 0 01-8.1 3.9c-5.4 0-8.1-3.8-8.1-7.6 0-6.4 5.7-9.9 15.9-9.8v-.5c0-2.2-.6-6.1-6-6.1-2.5 0-5 .8-6.9 2l-1.1-3.2c2.2-1.4 5.4-2.3 8.7-2.3 8.1 0 10.1 5.5 10.1 10.8v9.9c0 2.3.1 4.5.4 6.3h-4.3zm-.7-13.4c-5.3-.1-11.2.8-11.2 5.9 0 3.1 2.1 4.6 4.5 4.6 3.4 0 5.6-2.2 6.4-4.4.2-.5.3-1 .3-1.5v-4.6zM146.6 63.9v7.6h6.9v3.7h-6.9v14.2c0 3.3.9 5.1 3.6 5.1 1.3 0 2.2-.2 2.8-.3l.2 3.6c-.9.4-2.4.7-4.3.7-2.2 0-4-.7-5.2-2-1.4-1.4-1.9-3.8-1.9-6.9V75.1h-4.1v-3.7h4.1v-6.3l4.8-1.2zM171.4 97.8l-.4-3.3h-.2a9.79 9.79 0 01-8.1 3.9c-5.4 0-8.1-3.8-8.1-7.6 0-6.4 5.7-9.9 15.9-9.8v-.5c0-2.2-.6-6.1-6-6.1-2.5 0-5 .8-6.9 2l-1.1-3.2c2.2-1.4 5.4-2.3 8.7-2.3 8.1 0 10.1 5.5 10.1 10.8v9.9c0 2.3.1 4.5.4 6.3h-4.3zm-.7-13.4c-5.3-.1-11.2.8-11.2 5.9 0 3.1 2.1 4.6 4.5 4.6 3.4 0 5.6-2.2 6.4-4.4.2-.5.3-1 .3-1.5v-4.6z"/></g></g></a></g><a href="https://ourworldindata.org/grapher/mortality-from-alcohol-and-drug-use-disorders" target="_blank"><text font-size="25.2" x="15" y="35.2" fill="#555"><tspan x="15" y="35.16">Number of deaths from alcohol and drug use disorders, World</tspan></text></a><text font-size="14.4" x="15" y="53.7" fill="#666"><tspan x="15" y="53.72">Direct deaths from alcohol and drug use disorders. This does not include suicide deaths, which can in some cases be</tspan><tspan x="15" y="69.56">associated with substance use disorders. Tobacco smoking is not included.</tspan></text></g><g class="StackedArea"><defs><clipPath id="a"><path d="M78.97 0h820v928.8h-820z"/></clipPath></defs><g class="AxisBoxView"><g class="HorizontalAxis" fill="#666" text-anchor="middle" font-size="16.2"><text x="79" y="556.5">1990</text><text x="195.6" y="556.5">1995</text><text x="312.3" y="556.5">2000</text><text x="429" y="556.5">2005</text><text x="545.7" y="556.5">2010</text><text x="685.7" y="556.5">2016</text></g><g class="VerticalAxis" fill="#666" dominant-baseline="middle" text-anchor="end" font-size="16.2"><text x="73.97" y="535.3">0</text><text x="73.97" y="465.5">50,000</text><text x="73.97" y="395.8">100,000</text><text x="73.97" y="326">150,000</text><text x="73.97" y="256.3">200,000</text><text x="73.97" y="186.5">250,000</text><text x="73.97" y="116.7">300,000</text></g><g class="AxisGridLines"><path stroke="#ccc" d="M78.97 535.3h606.68"/><path stroke="#ddd" stroke-dasharray="3,2" d="M78.97 465.5h606.68M78.97 395.8h606.68M78.97 326h606.68M78.97 256.3h606.68M78.97 186.5h606.68M78.97 116.7h606.68"/></g></g><g clip-path="url(#a)"><g class="HeightedLegend clickable"><g class="legendMark"><text font-size="13.5" x="690.7" y="196.5" fill="#ed6c2d"><tspan x="690.65" y="196.45">Drug use disorders</tspan></text></g><g class="legendMark"><text font-size="13.5" x="690.7" y="418.1" fill="#3360a9"><tspan x="690.65" y="418.05">Alcohol disorders</tspan></text></g></g><g class="Areas"><path d="M79 378.3l23.3-7.7 23.3-13.4 23.4-18.9 23.3-15 23.3-1.5 23.4 5.1 23.3 4.7 23.3-.6 23.4-8 23.3-9.2 23.3-7.9 23.4-7.1 23.3-5 23.3-2.2 23.4-2 23.3 5.7 23.3 2.8 23.4.6 23.3 5.2 23.4 1.6 23.3 2 23.3.6 23.4-2.2 23.3-3.3 23.3-5.3 23.4-4.6-.05 242.6H78.98" fill="#3360a9" fill-opacity=".7" class="World_0-area"/><path d="M79 253.6l23.3-12.8 23.3-19.6 23.4-25.6 23.3-21.7 23.3-5.4 23.4 1.4 23.3 2.1 23.3-3.2 23.4-8.4 23.3-11.3 23.3-9.6 23.4-8.8 23.3-5.8 23.3-3.4 23.4-4.6 23.3 4.3 23.3 1.5 23.4-1.8 23.3 3.6 23.4-.4H569l23.3-1.4 23.4-6.2 23.3-7.2 23.3-8.7 23.4-8.5v200.6l-23.4 4.6-23.3 5.3-23.3 3.3-23.4 2.2-23.3-.6-23.3-2-23.4-1.6-23.3-5.2-23.4-.6-23.3-2.8-23.3-5.7-23.4 2-23.3 2.2-23.3 5-23.4 7.1-23.3 7.9L289 323l-23.4 8-23.3.6-23.3-4.7-23.4-5.1-23.3 1.5-23.3 15-23.4 18.9-23.3 13.4-23.3 7.7" fill="#ed6c2d" fill-opacity=".7" class="World_1-area"/><path stroke-linecap="round" d="M79 378.3l23.3-7.7 23.3-13.4 23.4-18.9 23.3-15 23.3-1.5 23.4 5.1 23.3 4.7 23.3-.6 23.4-8 23.3-9.2 23.3-7.9 23.4-7.1 23.3-5 23.3-2.2 23.4-2 23.3 5.7 23.3 2.8 23.4.6 23.3 5.2 23.4 1.6 23.3 2 23.3.6 23.4-2.2 23.3-3.3 23.3-5.3 23.4-4.6" stroke="#2B508D" stroke-opacity=".7" stroke-width=".5" fill="none" class="World_0-border"/><path stroke-linecap="round" d="M79 253.6l23.3-12.8 23.3-19.6 23.4-25.6 23.3-21.7 23.3-5.4 23.4 1.4 23.3 2.1 23.3-3.2 23.4-8.4 23.3-11.3 23.3-9.6 23.4-8.8 23.3-5.8 23.3-3.4 23.4-4.6 23.3 4.3 23.3 1.5 23.4-1.8 23.3 3.6 23.4-.4H569l23.3-1.4 23.4-6.2 23.3-7.2 23.3-8.7 23.4-8.5" stroke="#C65A26" stroke-opacity=".7" stroke-width=".5" fill="none" class="World_1-border"/></g></g></g><g class="SourcesFooter" fill="#777"><g class="clickable" fill="#777"><text font-size="12.6" x="15" y="581.6"><tspan x="15" y="581.58">Source: IHME, Global Burden of Disease (GBD)</tspan></text></g><text font-size="12.6" x="775.4" y="581.6"><tspan x="775.4" y="581.58"><a class="cclogo" href="http://creativecommons.org/licenses/by-sa/4.0/deed.en_US" target="_blank" fill="#777">CC BY-SA</a></tspan></text></g></g></svg>

<svg xmlns="http://www.w3.org/2000/svg" version="1.1" style="font-family: 'Helvetica Neue', Helvetica, Arial, sans-serif; font-size: 18px; background-color: white; text-rendering: optimizeLegibility; -webkit-font-smoothing: antialiased;" width="850" height="600"><g class="ChartTab"><g class="HeaderView"><g opacity="0.8" transform="translate(778, 15) scale(0.27)"><a xmlns:xlink="http://www.w3.org/1999/xlink" xlink:href="https://ourworldindata.org" target="_blank"><g><rect x="0" y="0" fill="#1B2543" width="211.2" height="130.1"/><rect x="0" y="112.2" fill="#E63912" width="211.2" height="17.9"/><g><rect x="1.2" y="12.3" fill="none" width="210.2" height="99.2"/><path fill="#FFFFFF" d="M37.8,32.2c0,12.7-7.7,19.4-17.1,19.4c-9.7,0-16.6-7.5-16.6-18.7c0-11.7,7.3-19.3,17.1-19.3 C31.3,13.7,37.8,21.3,37.8,32.2z M9.2,32.8c0,7.9,4.3,14.9,11.8,14.9c7.5,0,11.8-6.9,11.8-15.3c0-7.3-3.8-14.9-11.8-14.9 C13.1,17.5,9.2,24.8,9.2,32.8z"/><path fill="#FFFFFF" d="M62.7,43.8c0,2.7,0.1,5.1,0.2,7.2h-4.3l-0.3-4.3h-0.1c-1.3,2.1-4,4.9-8.8,4.9c-4.2,0-9.1-2.3-9.1-11.6 V24.6h4.8v14.6c0,5,1.5,8.4,5.9,8.4c3.2,0,5.5-2.2,6.3-4.4c0.3-0.7,0.4-1.6,0.4-2.5V24.6h4.8V43.8z"/><path fill="#FFFFFF" d="M67.3,32.8c0-3.1-0.1-5.8-0.2-8.2h4.2l0.2,5.2h0.2c1.2-3.5,4.1-5.8,7.3-5.8c0.5,0,0.9,0.1,1.4,0.2v4.5 c-0.5-0.1-1-0.2-1.6-0.2c-3.4,0-5.8,2.6-6.5,6.2c-0.1,0.7-0.2,1.4-0.2,2.2V51h-4.8V32.8z"/><path fill="#FFFFFF" d="M95.4,51l-9.4-36.8h5l4.4,18.6c1.1,4.6,2.1,9.2,2.7,12.7h0.1c0.6-3.7,1.8-8,3-12.8l4.9-18.5h5l4.5,18.7 c1,4.4,2,8.7,2.6,12.6h0.1c0.8-4,1.8-8.1,3-12.7l4.9-18.5h4.9L120.6,51h-5L111,31.9c-1.1-4.7-1.9-8.3-2.4-12h-0.1 c-0.7,3.7-1.5,7.3-2.8,12L100.4,51H95.4z"/><path fill="#FFFFFF" d="M154.9,37.6c0,9.8-6.8,14-13.2,14c-7.2,0-12.7-5.2-12.7-13.6c0-8.8,5.8-14,13.1-14 C149.8,24,154.9,29.5,154.9,37.6z M133.9,37.9c0,5.8,3.3,10.1,8,10.1c4.6,0,8-4.3,8-10.3c0-4.5-2.2-10.1-7.9-10.1 C136.3,27.6,133.9,32.8,133.9,37.9z"/><path fill="#FFFFFF" d="M158.2,32.8c0-3.1-0.1-5.8-0.2-8.2h4.2l0.2,5.2h0.2c1.2-3.5,4.1-5.8,7.3-5.8c0.5,0,0.9,0.1,1.4,0.2v4.5 c-0.5-0.1-1-0.2-1.6-0.2c-3.4,0-5.8,2.6-6.5,6.2c-0.1,0.7-0.2,1.4-0.2,2.2V51h-4.8V32.8z"/><path fill="#FFFFFF" d="M173.5,12.3h4.8V51h-4.8V12.3z"/><path fill="#FFFFFF" d="M206.5,12.3v31.9c0,2.3,0.1,5,0.2,6.8h-4.3l-0.2-4.6H202c-1.5,2.9-4.7,5.2-9,5.2 c-6.4,0-11.3-5.4-11.3-13.4c-0.1-8.8,5.4-14.2,11.9-14.2c4,0,6.8,1.9,8,4h0.1V12.3H206.5z M201.7,35.4c0-0.6-0.1-1.4-0.2-2 c-0.7-3.1-3.3-5.6-6.9-5.6c-5,0-7.9,4.4-7.9,10.2c0,5.3,2.6,9.8,7.8,9.8c3.2,0,6.2-2.1,7.1-5.7c0.2-0.7,0.2-1.3,0.2-2.1V35.4z"/><path fill="#FFFFFF" d="M42.8,64c0.1,1.6-1.1,2.9-3.1,2.9c-1.7,0-2.9-1.3-2.9-2.9c0-1.7,1.3-3,3-3C41.7,61,42.8,62.3,42.8,64z M37.4,97.8V71.4h4.8v26.4H37.4z"/><path fill="#FFFFFF" d="M47.5,78.6c0-2.7-0.1-5-0.2-7.1h4.3l0.3,4.4h0.1c1.3-2.5,4.4-5,8.8-5c3.7,0,9.4,2.2,9.4,11.2v15.8h-4.8 V82.6c0-4.3-1.6-7.8-6.1-7.8c-3.2,0-5.6,2.2-6.5,4.9c-0.2,0.6-0.3,1.4-0.3,2.2v15.9h-4.8V78.6z"/><path fill="#FFFFFF" d="M84,61.6c2.9-0.4,6.3-0.8,10.1-0.8c6.8,0,11.7,1.6,14.9,4.6c3.3,3,5.2,7.3,5.2,13.2c0,6-1.9,10.9-5.3,14.3 c-3.4,3.4-9.1,5.3-16.3,5.3c-3.4,0-6.2-0.2-8.6-0.4V61.6z M88.8,94.1c1.2,0.2,3,0.3,4.8,0.3c10.2,0,15.7-5.7,15.7-15.6 c0.1-8.7-4.9-14.2-14.9-14.2c-2.5,0-4.3,0.2-5.6,0.5V94.1z"/><path fill="#FFFFFF" d="M132.1,97.8l-0.4-3.3h-0.2c-1.5,2.1-4.3,3.9-8.1,3.9c-5.4,0-8.1-3.8-8.1-7.6c0-6.4,5.7-9.9,15.9-9.8v-0.5 c0-2.2-0.6-6.1-6-6.1c-2.5,0-5,0.8-6.9,2l-1.1-3.2c2.2-1.4,5.4-2.3,8.7-2.3c8.1,0,10.1,5.5,10.1,10.8v9.9c0,2.3,0.1,4.5,0.4,6.3 H132.1z M131.4,84.4c-5.3-0.1-11.2,0.8-11.2,5.9c0,3.1,2.1,4.6,4.5,4.6c3.4,0,5.6-2.2,6.4-4.4c0.2-0.5,0.3-1,0.3-1.5V84.4z"/><path fill="#FFFFFF" d="M146.6,63.9v7.6h6.9v3.7h-6.9v14.2c0,3.3,0.9,5.1,3.6,5.1c1.3,0,2.2-0.2,2.8-0.3l0.2,3.6 c-0.9,0.4-2.4,0.7-4.3,0.7c-2.2,0-4-0.7-5.2-2c-1.4-1.4-1.9-3.8-1.9-6.9V75.1h-4.1v-3.7h4.1v-6.3L146.6,63.9z"/><path fill="#FFFFFF" d="M171.4,97.8l-0.4-3.3h-0.2c-1.5,2.1-4.3,3.9-8.1,3.9c-5.4,0-8.1-3.8-8.1-7.6c0-6.4,5.7-9.9,15.9-9.8v-0.5 c0-2.2-0.6-6.1-6-6.1c-2.5,0-5,0.8-6.9,2l-1.1-3.2c2.2-1.4,5.4-2.3,8.7-2.3c8.1,0,10.1,5.5,10.1,10.8v9.9c0,2.3,0.1,4.5,0.4,6.3 H171.4z M170.7,84.4c-5.3-0.1-11.2,0.8-11.2,5.9c0,3.1,2.1,4.6,4.5,4.6c3.4,0,5.6-2.2,6.4-4.4c0.2-0.5,0.3-1,0.3-1.5V84.4z"/></g></g></a></g><a href="https://ourworldindata.org/grapher/mortality-from-alcohol-and-drug-use-disorders" target="_blank"><text font-size="25.20" x="15.0" y="35.2" fill="#555"><tspan x="15" y="35.160000000000004">Number of deaths from alcohol and drug use disorders, World</tspan></text></a><text font-size="14.40" x="15.0" y="53.7" fill="#666"><tspan x="15" y="53.72">Direct deaths from alcohol and drug use disorders. This does not include suicide deaths, which can in some cases be</tspan><tspan x="15" y="69.56">associated with substance use disorders. Tobacco smoking is not included.</tspan></text></g><g class="StackedArea"><defs><clipPath id="boundsClip-29"><rect x="78.968" y="0" width="820" height="928.8"></rect></clipPath></defs><g class="AxisBoxView"><g class="HorizontalAxis"><text x="79" y="556.5" fill="#666" text-anchor="middle" font-size="16.2">1990</text><text x="195.6" y="556.5" fill="#666" text-anchor="middle" font-size="16.2">1995</text><text x="312.3" y="556.5" fill="#666" text-anchor="middle" font-size="16.2">2000</text><text x="429" y="556.5" fill="#666" text-anchor="middle" font-size="16.2">2005</text><text x="545.7" y="556.5" fill="#666" text-anchor="middle" font-size="16.2">2010</text><text x="685.7" y="556.5" fill="#666" text-anchor="middle" font-size="16.2">2016</text></g><g class="VerticalAxis"><text x="73.97" y="535.3" fill="#666" dominant-baseline="middle" text-anchor="end" font-size="16.2">0</text><text x="73.97" y="465.5" fill="#666" dominant-baseline="middle" text-anchor="end" font-size="16.2">50,000</text><text x="73.97" y="395.8" fill="#666" dominant-baseline="middle" text-anchor="end" font-size="16.2">100,000</text><text x="73.97" y="326" fill="#666" dominant-baseline="middle" text-anchor="end" font-size="16.2">150,000</text><text x="73.97" y="256.3" fill="#666" dominant-baseline="middle" text-anchor="end" font-size="16.2">200,000</text><text x="73.97" y="186.5" fill="#666" dominant-baseline="middle" text-anchor="end" font-size="16.2">250,000</text><text x="73.97" y="116.7" fill="#666" dominant-baseline="middle" text-anchor="end" font-size="16.2">300,000</text></g><g class="AxisGridLines"><line x1="78.97" y1="535.3" x2="685.65" y2="535.3" stroke="#ccc"></line><line x1="78.97" y1="465.5" x2="685.65" y2="465.5" stroke="#ddd" stroke-dasharray="3,2"></line><line x1="78.97" y1="395.8" x2="685.65" y2="395.8" stroke="#ddd" stroke-dasharray="3,2"></line><line x1="78.97" y1="326" x2="685.65" y2="326" stroke="#ddd" stroke-dasharray="3,2"></line><line x1="78.97" y1="256.3" x2="685.65" y2="256.3" stroke="#ddd" stroke-dasharray="3,2"></line><line x1="78.97" y1="186.5" x2="685.65" y2="186.5" stroke="#ddd" stroke-dasharray="3,2"></line><line x1="78.97" y1="116.7" x2="685.65" y2="116.7" stroke="#ddd" stroke-dasharray="3,2"></line></g></g><g clip-path="url(#boundsClip-29)"><g class="HeightedLegend clickable"><g class="legendMark"><rect x="685.655" y="185.65" width="149.34500000000003" height="13.5" fill="#fff" opacity="0"></rect><text font-size="13.50" x="690.7" y="196.5" fill="#ed6c2d"><tspan x="690.655" y="196.45000000000002">Drug use disorders</tspan></text></g><g class="legendMark"><rect x="685.655" y="407.25" width="138.815" height="13.5" fill="#fff" opacity="0"></rect><text font-size="13.50" x="690.7" y="418.1" fill="#3360a9"><tspan x="690.655" y="418.05">Alcohol disorders</tspan></text></g></g><g class="Areas"><rect x="78.968" y="92.1" width="606.687" height="443.19999999999993" opacity="0" fill="rgba(255,255,255,0)"></rect><path stroke-linecap="round" d="M79 378.3L102.3 370.6L125.6 357.2L149 338.3L172.3 323.3L195.6 321.8L219 326.9L242.3 331.6L265.6 331L289 323L312.3 313.8L335.6 305.9L359 298.8L382.3 293.8L405.6 291.6L429 289.6L452.3 295.3L475.6 298.1L499 298.7L522.3 303.9L545.7 305.5L569 307.5L592.3 308.1L615.7 305.9L639 302.6L662.3 297.3L685.7 292.7L685.655 535.3L78.968 535.3" fill="#3360a9" fill-opacity="0.7" class="World_0-area"></path><path stroke-linecap="round" d="M79 253.6L102.3 240.8L125.6 221.2L149 195.6L172.3 173.9L195.6 168.5L219 169.9L242.3 172L265.6 168.8L289 160.4L312.3 149.1L335.6 139.5L359 130.7L382.3 124.9L405.6 121.5L429 116.9L452.3 121.2L475.6 122.7L499 120.9L522.3 124.5L545.7 124.1L569 124.1L592.3 122.7L615.7 116.5L639 109.3L662.3 100.6L685.7 92.1L685.7 292.7L662.3 297.3L639 302.6L615.7 305.9L592.3 308.1L569 307.5L545.7 305.5L522.3 303.9L499 298.7L475.6 298.1L452.3 295.3L429 289.6L405.6 291.6L382.3 293.8L359 298.8L335.6 305.9L312.3 313.8L289 323L265.6 331L242.3 331.6L219 326.9L195.6 321.8L172.3 323.3L149 338.3L125.6 357.2L102.3 370.6L79 378.3" fill="#ed6c2d" fill-opacity="0.7" class="World_1-area"></path><path stroke-linecap="round" d="M79 378.3L102.3 370.6L125.6 357.2L149 338.3L172.3 323.3L195.6 321.8L219 326.9L242.3 331.6L265.6 331L289 323L312.3 313.8L335.6 305.9L359 298.8L382.3 293.8L405.6 291.6L429 289.6L452.3 295.3L475.6 298.1L499 298.7L522.3 303.9L545.7 305.5L569 307.5L592.3 308.1L615.7 305.9L639 302.6L662.3 297.3L685.7 292.7" stroke="rgb(43, 80, 141)" stroke-opacity="0.7" stroke-width="0.5" fill="none" class="World_0-border"></path><path stroke-linecap="round" d="M79 253.6L102.3 240.8L125.6 221.2L149 195.6L172.3 173.9L195.6 168.5L219 169.9L242.3 172L265.6 168.8L289 160.4L312.3 149.1L335.6 139.5L359 130.7L382.3 124.9L405.6 121.5L429 116.9L452.3 121.2L475.6 122.7L499 120.9L522.3 124.5L545.7 124.1L569 124.1L592.3 122.7L615.7 116.5L639 109.3L662.3 100.6L685.7 92.1" stroke="rgb(198, 90, 38)" stroke-opacity="0.7" stroke-width="0.5" fill="none" class="World_1-border"></path></g></g></g><g style="fill: #777;" class="SourcesFooter"><g style="fill: #777;" class="clickable"><text font-size="12.60" x="15.0" y="581.6"><tspan x="15" y="581.58">Source: IHME, Global Burden of Disease (GBD)</tspan></text></g><text font-size="12.60" x="775.4" y="581.6"><tspan x="775.402" y="581.58"><a style="fill: #777;" class="cclogo" href="http://creativecommons.org/licenses/by-sa/4.0/deed.en_US" target="_blank">CC BY-SA</a></tspan></text></g></g></svg>
